docs-site/src/assets/images/logos/pega-logo.svg

<?xml version="1.0" encoding="UTF-8" standalone="no"?>
<svg viewBox="0 0 311 68" version="1.1" xmlns="http://www.w3.org/2000/svg" xmlns:xlink="http://www.w3.org/1999/xlink">
    <!-- Generator: Sketch 46.1 (44463) - http://www.bohemiancoding.com/sketch -->
    <title>Logo</title>
    <desc>Created with Sketch.</desc>
    <defs></defs>
    <g id="Symbols" stroke="none" stroke-width="1" fill="none" fill-rule="evenodd">
        <g id="Logo">
            <g id="pega_logo_horizontal_positive_rgb">
                <path d="M136.36,17.098 L136.173,17.009 C136.154,16.998 133.96,16.01 132.245,17.815 L132.026,18.046 L135.539,19.768 L136.36,17.098 Z M152.441,36.389 C152.441,36.389 150.91,39.13 150.224,40.143 C149.535,41.164 147.38,41.798 145.517,40.908 C144.665,40.503 136.694,35.854 133.644,36.12 C118.205,37.466 113.999,31.105 113.503,30.527 C113.005,29.949 112.077,30.218 112.74,31.355 C116.127,37.163 126.15,39.856 126.15,39.856 C128.771,46.172 129.085,50.597 129.085,50.597 C126.489,48.574 123.687,46.869 120.714,45.453 C112.768,40.121 100.329,33.518 83.207,29.379 C84.191,15.797 91.044,-3.837 123.092,0.806 C123.092,0.806 129.522,1.86 133.809,4.824 C133.809,4.824 132.779,5.904 131.425,7.256 C130.071,8.605 131.569,9.471 131.569,9.471 L138.338,14.792 C138.417,17.607 138.533,18.396 140.651,20.944 C142.769,23.487 151.004,32.112 152.081,33.266 C153.329,34.6 152.441,36.389 152.441,36.389 Z M78.633,9.915 C76.938,16.897 77.068,23.049 77.939,28.221 C76.33,27.901 74.697,27.594 73.014,27.32 C37.94,21.612 27.361,38.899 31.455,52.916 C19.86,57.274 8.963,62.263 0.214,67.162 C13.98,34.146 43.896,5.087 69.145,1.268 C77.389,0.181 79.708,5.529 78.633,9.915 L78.633,9.915 Z" id="Fill-1" fill="#1F2555"></path>
                <path d="M83.492,40.09 C97.157,39.01 110.054,40.381 120.713,45.453 C112.768,40.121 100.329,33.518 83.206,29.379 C82.864,34.111 83.23,38.107 83.492,40.09 Z M81.52,40.262 C66.209,41.723 48.105,46.663 31.455,52.916 C27.361,38.899 37.941,21.612 73.014,27.32 C74.697,27.594 76.33,27.901 77.938,28.221 C78.77,33.166 80.276,37.228 81.52,40.262 L81.52,40.262 Z" id="Fill-2" fill="#00A6A7"></path>
                <path d="M286.63,35.039 L291.379,23.446 L296.129,35.039 L286.63,35.039 Z M287.854,14 L272.536,50 L280.553,50 L283.819,41.985 L298.938,41.985 L302.204,50 L310.427,50 L295.108,14 L287.854,14 Z M188.647,26.704 C188.647,29.787 186.335,32.153 182.375,32.153 L176.1,32.153 L176.1,21.149 L182.219,21.149 C186.181,21.149 188.647,23.052 188.647,26.601 L188.647,26.704 Z M182.889,14 L168.18,14 L168.18,50 L176.1,50 L176.1,39.2 L182.115,39.2 C190.19,39.2 196.673,34.878 196.673,26.547 L196.673,26.444 C196.673,19.09 191.48,14 182.889,14 Z M239.764,18.02 C235.989,21.708 234.075,26.376 234.075,31.896 C234.075,37.421 235.953,42.054 239.663,45.675 C243.366,49.292 248.022,51.123 253.503,51.123 C259.992,51.123 265.064,49.159 268.587,45.284 L268.769,45.08 L268.769,28.556 L253.112,28.556 L253.112,35.244 L261.279,35.244 L261.279,41.993 C259.164,43.252 256.525,43.891 253.429,43.891 C250.221,43.891 247.454,42.792 245.203,40.62 C242.958,38.458 241.819,35.527 241.819,31.926 C241.819,28.322 242.992,25.379 245.304,23.18 C247.624,20.972 250.538,19.852 253.966,19.852 C255.769,19.852 257.366,20.074 258.711,20.512 C259.973,20.922 261.251,21.667 262.517,22.712 L266.897,17.183 C264.586,15.147 260.427,12.467 253.503,12.467 C248.162,12.467 243.539,14.336 239.764,18.02 Z M210.336,35.604 L225.842,35.604 L225.842,28.556 L210.336,28.556 L210.336,21.042 L229.623,21.042 L229.623,14 L202.466,14 L202.466,50 L229.879,50 L229.879,42.955 L210.336,42.955 L210.336,35.604 L210.336,35.604 Z" id="Fill-3" fill="#1F2555"></path>
            </g>
        </g>
    </g>
</svg>

<svg id="a4a76926-8218-445e-b12f-4814a121dd9a" data-name="Layer 1" xmlns="http://www.w3.org/2000/svg" viewBox="0 0 310.21 67.05"><g id="f14ad855-c56a-4c65-9c07-3e233658c9a2" data-name="Symbols"><g id="e1b3f956-fd3a-44dc-a404-a22cce54fa8f" data-name="Logo"><g id="a3b8ded3-7f65-480d-8b5a-5505c8e9ae0d" data-name="pega logo horizontal positive rgb"><path id="f0983726-644b-49ae-9a8b-32ba20557322" data-name="Fill-1" d="M136.36,17.1l-.19-.09a3.54,3.54,0,0,0-3.93.81l-.21.23,3.51,1.72Zm16.08,19.29s-1.53,2.74-2.22,3.75-2.84,1.66-4.7.77c-.86-.41-8.83-5.06-11.88-4.79-15.43,1.35-19.64-5-20.14-5.59s-1.42-.31-.76.82c3.39,5.81,13.41,8.51,13.41,8.51a38.24,38.24,0,0,1,2.94,10.74,45,45,0,0,0-8.38-5.15,116.2,116.2,0,0,0-37.5-16.07C84.19,15.8,91-3.84,123.09.81c0,0,6.43,1.05,10.72,4,0,0-1,1.08-2.38,2.44a1.29,1.29,0,0,0,.14,2.21l6.77,5.32c.08,2.82.19,3.61,2.31,6.15S151,32.11,152.08,33.27A2.91,2.91,0,0,1,152.44,36.39ZM78.63,9.91a45.15,45.15,0,0,0-.69,18.31c-1.61-.32-3.24-.63-4.93-.9C37.94,21.61,27.36,38.9,31.45,52.92A233.79,233.79,0,0,0,.21,67.16C14,34.15,43.9,5.09,69.14,1.27,77.39.18,79.71,5.53,78.63,9.91Z" transform="translate(-0.21 -0.11)" fill="#1f2555" fill-rule="evenodd"/><path id="b9192b49-5fdd-4e4a-a99f-d8466eedf937" data-name="Fill-2" d="M83.49,40.09c13.67-1.08,26.56.29,37.22,5.36a116.2,116.2,0,0,0-37.5-16.07A54.21,54.21,0,0,0,83.49,40.09Zm-2,.17c-15.31,1.46-33.42,6.4-50.07,12.66-4.09-14,6.49-31.31,41.56-25.6,1.69.27,3.32.58,4.93.9a55.52,55.52,0,0,0,3.58,12Z" transform="translate(-0.21 -0.11)" fill="#00a6a7" fill-rule="evenodd"/><path id="a70d04e5-6c9c-49da-b67d-20db0c9851ba" data-name="Fill-3" d="M286.63,35l4.75-11.59L296.13,35Zm1.22-21L272.54,50h8l3.27-8h15.12l3.26,8h8.23L295.11,14Zm-99.2,12.7c0,3.09-2.31,5.45-6.27,5.45H176.1v-11h6.12c4,0,6.43,1.9,6.43,5.45ZM182.89,14H168.18V50h7.92V39.2h6c8.07,0,14.55-4.32,14.55-12.65v-.11C196.67,19.09,191.48,14,182.89,14Zm56.87,4a18.72,18.72,0,0,0-5.69,13.88,18.5,18.5,0,0,0,5.59,13.77,19.11,19.11,0,0,0,13.84,5.45c6.49,0,11.56-2,15.09-5.84l.18-.2V28.56H253.11v6.68h8.17V42a15.19,15.19,0,0,1-7.85,1.9,11.38,11.38,0,0,1-11.61-12,11.57,11.57,0,0,1,3.48-8.75A12.14,12.14,0,0,1,254,19.85a15.33,15.33,0,0,1,4.74.66,12,12,0,0,1,3.81,2.2l4.38-5.53c-2.31-2-6.47-4.71-13.4-4.71A19.06,19.06,0,0,0,239.76,18ZM210.34,35.6h15.5v-7h-15.5V21h19.28V14H202.47V50h27.41V43H210.34V35.6Z" transform="translate(-0.21 -0.11)" fill="#1f2555" fill-rule="evenodd"/></g></g></g></svg>
